assets/img/braze_icons/users-01-braze-orange-dark.svg

<svg fill="none" height="48" viewBox="0 0 48 48" width="48" xmlns="http://www.w3.org/2000/svg"><g clip-rule="evenodd" fill="#e9371f" fill-rule="evenodd"><path d="m36.0632 29.7535c.2753-1.0697 1.3657-1.7137 2.4354-1.4383 4.3126 1.11 7.5015 5.0225 7.5015 9.6848v4c0 1.1046-.8955 2-2 2-1.1046 0-2-.8954-2-2v-4c0-2.793-1.9103-5.1449-4.4985-5.8111-1.0698-.2753-1.7137-1.3657-1.4384-2.4354z"/><path d="m29.1462 5.83109c.4144-1.02387 1.5804-1.5179 2.6043-1.10345 3.6611 1.48198 6.2496 5.07249 6.2496 9.27236 0 4.1999-2.5885 7.7904-6.2496 9.2724-1.0239.4144-2.1899-.0796-2.6043-1.1035-.4145-1.0239.0796-2.1898 1.1034-2.6043 2.2026-.8916 3.7505-3.0497 3.7505-5.5646s-1.5479-4.67303-3.7505-5.56461c-1.0238-.41445-1.5179-1.58044-1.1034-2.6043z"/><path d="m14.358 27.9999c3.0947.0011 6.1894.0011 9.2842 0 2.1812-.0007 3.6696-.0012 4.9461.3408 3.4509.9247 6.1464 3.6202 7.071 7.0711.4605 1.7186.3272 3.5554.3411 5.3164.0017.2138.0052.6462-.1025 1.0483-.2775 1.0352-1.0861 1.8439-2.1214 2.1213-.402.1077-.8344.1043-1.0482.1026-9.1501-.0731-18.3064-.0731-27.45641 0-.21382.0017-.64624.0051-1.04827-.1026-1.03528-.2774-1.84392-1.0861-2.12132-2.1213-.10773-.4021-.10428-.8345-.10258-1.0483.01401-1.7567-.11868-3.6005.3411-5.3164.92467-3.4509 3.62014-6.1464 7.07106-7.0711 1.27642-.342 2.76482-.3415 4.94612-.3408z"/><path d="m9.00007 14c0-5.52285 4.47713-10 10.00003-10 5.5228 0 10 4.47715 10 10 0 5.5228-4.4772 10-10 10-5.5229 0-10.00003-4.4772-10.00003-10z"/></g></svg>

<svg width="48" height="48" viewBox="0 0 48 48" fill="none" xmlns="http://www.w3.org/2000/svg">
<path fill-rule="evenodd" clip-rule="evenodd" d="M36.0632 29.7535C36.3385 28.6838 37.4289 28.0398 38.4986 28.3152C42.8112 29.4252 46.0001 33.3377 46.0001 38V42C46.0001 43.1046 45.1046 44 44.0001 44C42.8955 44 42.0001 43.1046 42.0001 42V38C42.0001 35.207 40.0898 32.8551 37.5016 32.1889C36.4318 31.9136 35.7879 30.8232 36.0632 29.7535Z" fill="#E9371F"/>
<path fill-rule="evenodd" clip-rule="evenodd" d="M29.1462 5.83109C29.5606 4.80722 30.7266 4.31319 31.7505 4.72764C35.4116 6.20962 38.0001 9.80013 38.0001 14C38.0001 18.1999 35.4116 21.7904 31.7505 23.2724C30.7266 23.6868 29.5606 23.1928 29.1462 22.1689C28.7317 21.145 29.2258 19.9791 30.2496 19.5646C32.4522 18.673 34.0001 16.5149 34.0001 14C34.0001 11.4851 32.4522 9.32697 30.2496 8.43539C29.2258 8.02094 28.7317 6.85495 29.1462 5.83109Z" fill="#E9371F"/>
<path fill-rule="evenodd" clip-rule="evenodd" d="M14.358 27.9999C17.4527 28.001 20.5474 28.001 23.6422 27.9999C25.8234 27.9992 27.3118 27.9987 28.5883 28.3407C32.0392 29.2654 34.7347 31.9609 35.6593 35.4118C36.1198 37.1304 35.9865 38.9672 36.0004 40.7282C36.0021 40.942 36.0056 41.3744 35.8979 41.7765C35.6204 42.8117 34.8118 43.6204 33.7765 43.8978C33.3745 44.0055 32.9421 44.0021 32.7283 44.0004C23.5782 43.9273 14.4219 43.9273 5.27189 44.0004C5.05807 44.0021 4.62565 44.0055 4.22362 43.8978C3.18834 43.6204 2.3797 42.8117 2.1023 41.7765C1.99457 41.3744 1.99802 40.942 1.99972 40.7282C2.01373 38.9715 1.88104 37.1277 2.34082 35.4118C3.26549 31.9609 5.96096 29.2654 9.41188 28.3407C10.6883 27.9987 12.1767 27.9992 14.358 27.9999Z" fill="#E9371F"/>
<path fill-rule="evenodd" clip-rule="evenodd" d="M9.00007 14C9.00007 8.47715 13.4772 4 19.0001 4C24.5229 4 29.0001 8.47715 29.0001 14C29.0001 19.5228 24.5229 24 19.0001 24C13.4772 24 9.00007 19.5228 9.00007 14Z" fill="#E9371F"/>
</svg>
